X:154
U: ~ = !turn!
%%topmargin 3cm
T:Paddy Cronin Reel #1
B:Traditional Irish Fiddle Tunes. Randy Miller and Jack Perron.
Z:Transcribed by Ralph Palmer
S:Paddy Cronin
R:Reel
L:1/8
M:C|
K:EAeol
B | (3.E.E.E EF GABd | (3.D.D.D AD FDAF | (3.E.E.E EF GABG | BEED E2 EB |
(3.E.E.E EF GABd | (3.D.D.D AD FDAF | (3.E.E.E EF GABG | BEED E2 ef ||
gef^d e2 Be | dBAd FDAF | efed B^def | geB^d eBef |
gefd e2 Be | f^cdA FDAf | gdeB dGAB | GEE^D E2 z |]
